Hatter-kde/actions/22/format-border-set-right.svg

<?xml version="1.0" encoding="UTF-8"?>
<svg viewBox="0 0 22 22" xmlns="http://www.w3.org/2000/svg">
 <defs id="defs3051">
  <style id="current-color-scheme" type="text/css">.ColorScheme-Text {
        color:#363636;
      }</style>
 </defs>
 <path class="ColorScheme-Text" d="m19 2v17h1v-17h-1z" fill="currentColor"/>
 <path class="ColorScheme-Text" d="m4 3v7h7v-7h-7zm8 0v7h7v-7h-7zm-8 8v7h7v-7h-7zm8 0v7h7v-7h-7z" fill="currentColor" fill-opacity=".5"/>
 <path class="ColorScheme-Text" d="m3 2v1 7 1 7 1h1 7 1 7v-1h-7v-7h7v-1h-7v-7h7v-1h-7-1-7-1zm1 1h7v7h-7v-7zm0 8h7v7h-7v-7z" fill="currentColor" fill-opacity=".1"/>
</svg>

<svg xmlns="http://www.w3.org/2000/svg" viewBox="0 0 22 22">
  <defs id="defs3051">
    <style type="text/css" id="current-color-scheme">
      .ColorScheme-Text {
        color:#363636;
      }
      </style>
  </defs>
 <path 
     style="fill:currentColor;fill-opacity:1.0;stroke:none" 
     d="M 19 2 L 19 19 L 20 19 L 20 2 L 19 2 z "
     class="ColorScheme-Text"
     />
 <path 
     style="fill:currentColor;fill-opacity:0.5;stroke:none" 
     d="M 4 3 L 4 10 L 11 10 L 11 3 L 4 3 z M 12 3 L 12 10 L 19 10 L 19 3 L 12 3 z M 4 11 L 4 18 L 11 18 L 11 11 L 4 11 z M 12 11 L 12 18 L 19 18 L 19 11 L 12 11 z "
     class="ColorScheme-Text"
     />
 <path 
     style="fill:currentColor;fill-opacity:0.1;stroke:none" 
     d="M 3 2 L 3 3 L 3 10 L 3 11 L 3 18 L 3 19 L 4 19 L 11 19 L 12 19 L 19 19 L 19 18 L 12 18 L 12 11 L 19 11 L 19 10 L 12 10 L 12 3 L 19 3 L 19 2 L 12 2 L 11 2 L 4 2 L 3 2 z M 4 3 L 11 3 L 11 10 L 4 10 L 4 3 z M 4 11 L 11 11 L 11 18 L 4 18 L 4 11 z "
     class="ColorScheme-Text"
     />
</svg>
